X:1
T:Bis hierher hat mich Gott gebracht
T:Nikolaus von Hofe (Decius) 1539  - Mehrstimmig von Gustav Beckmann
T:Text: Ämilie Juliane von Schwarzburg-Rudolstadt
T:Bis hierher hat mich Gott gebracht
T:CPDL - Creative Commons Attribution Non Commercial 3.0
C:Gustav Beckmann
Z:Ämilie Juliane von Schwarzburg-Rudolstadt
Z:CPDL - Creative Commons Attribution Non Commercial 3.0
%%score [ ( 1 2 ) ( 3 4 ) ]
L:1/8
M:3/4
K:G
V:1 treble nm="Sopran\nAlt"
V:2 treble 
V:3 bass nm="Tenor\nBass"
V:4 bass 
V:1
 G2 | B4 c2 | d4 c2 | B4 A2 | !fermata!B4 B2 | B4 A2 | c4 A2 | (G4 F2) | !fermata!G4 | G2 | B4 c2 | %11
w: 1.~Bis|hier- her|hat mich|Gott ge-|bracht durch|sei- ne|gro- ße|Gü- *|te,|bis|hier- her|
w: 2.~Hab'|Lob und|Eh- re,|Preis und|Dank für|die bis-|her'- ge|Treu- *|e,|die|du, o|
w: 3.~Hilf|fer- ner-|weit, mein|treu'- ster|Hort, hilf|mir zu|al- len|Stun- *|den;|hilf|mir an|
 d4 c2 | B4 A2 | !fermata!B4 B2 | B4 A2 | c4 A2 | (G4 F2) | !fermata!G4 | G2 | A4 B2 | c4 B2 | %21
w: hat er|Tag und|Nacht be-|wahrt Herz|und Ge-|mü- *|te.|Bis|hier- her|hat er|
w: Gott, mein|Le- ben|lang be-|wie- sen|täg- lich|neu- *|e.|In|mein Ge-|dächt- nis|
w: all' und|je- dem|Ort, hilf|mir durch|Je- su|Wun- *|den;|da-|mit ich|sag' bis|
 A4 ^G2 | !fermata!A4 A2 | B4 c2 | d4 c2 | B4 A2 | !fermata!B4 G2 | A4 c2 | B4 A2 | (G4 F2) | %30
w: mich ge-|leit't, bis|hier- her|hat er|mich er-|freut, bis|hier- her|mir ge-|hol- *|
w: schreib' ich|an: Der|Herr hat|Gro- ßes|mir ge-|tan, bis|hier- her|mir ge-|hol- *|
w: in den|Tod: "Durch|Chris- ti|Blut hilf|mir, mein|Gott, er|hilft, wie|er ge-|hol- *|
 !fermata!G4 |] %31
w: fen.|
w: fen.|
w: fen.|
V:2
 D2 | D4 G2 | F4 E2 | G4 F2 | G4 E2 | D4 D2 | C4 E2 | D6 | D4 | D2 | D4 G2 | F4 E2 | G4 F2 | %13
 G4 E2 | D4 D2 | C4 E2 | D6 | D4 | E2 | F4 ^G2 | A4 ^G2 | E4 E2 | E4 D2 | D4 G2 | F4 A2 | F4 E2 | %26
 ^D4 B,2 | D4 C2 | D4 C2 | (B,4 D2) | D4 |] %31
V:3
 B,2 | G,4 G,2 | A,4 A,2 | D4 D2 | !fermata!D4 G,2 | B,4 D2 | G,4 A,2 | (B,4 C2) | !fermata!B,4 | %9
 B,2 | G,4 G,2 | A,4 A,2 | D4 D2 | !fermata!D4 G,2 | B,4 D2 | G,4 A,2 | (B,4 C2) | !fermata!B,4 | %18
 B,2 | D4 D2 | E4 D2 | C4 D2 | !fermata!^C4 F,2 | G,4 G,2 | A,4 E2 | B,4 E,2 | !fermata!F,4 G,2 | %27
 F,4 A,2 | ^G,4 A,2 | (B,4 C2) | B,4 |] %31
V:4
 G,2 | G,4 E,2 | D,4 A,,2 | B,,4 D,2 | G,4 E,2 | G,4 F,2 | E,4 C,2 | D,6 | G,4 | G,2 | G,4 E,2 | %11
 D,4 A,,2 | B,,4 D,2 | G,4 E,2 | G,4 F,2 | E,4 C,2 | D,6 | G,4 | E,2 | D,4 B,,2 | A,,4 E,2 | %21
 A,4 B,2 | A,4 D,2 | G,4 E,2 | D,4 C,2 | D,4 C,2 | B,,4 E,2 | D,4 A,,2 | B,,4 C,2 | D,6 | %30
 !fermata!G,4 |] %31

